src/resources/icons/sad_face.svg

<svg width="92" height="77" viewBox="0 0 92 77" fill="none" aria-hidden="true" xmlns="http://www.w3.org/2000/svg">
<path d="M28.6346 28.8687C28.7084 34.4031 25.5169 39.0152 21.5045 39.0152C17.492 39.0152 14.1806 34.5876 14.1252 29.0163C14.0699 23.445 17.2522 18.8699 21.2646 18.8699C25.2771 18.8699 28.5701 23.2882 28.6346 28.8687Z" fill="#001550"/>
<path d="M25.6832 24.2289C25.9692 26.3781 25.1574 28.2691 23.8384 28.4443C22.5194 28.6196 21.2649 27.0146 20.9697 24.8562C20.6746 22.6977 21.4955 20.816 22.8145 20.6408C24.1336 20.4655 25.4249 22.0705 25.6832 24.2289Z" fill="white"/>
<path d="M78.5091 27.7433C78.5829 33.3238 75.3914 37.8897 71.379 37.9358C67.3665 37.9819 64.0551 33.5083 63.9997 27.937C63.9444 22.3656 67.1174 17.7905 71.1299 17.7905C75.1424 17.7905 78.4353 22.1535 78.5091 27.7433Z" fill="#001550"/>
<path d="M75.3087 22.541C75.5946 24.6994 74.7829 26.5811 73.4639 26.7564C72.1448 26.9316 70.8904 25.3266 70.5952 23.1774C70.3 21.0282 71.121 19.1373 72.44 18.9621C73.7591 18.7868 75.0135 20.3918 75.3087 22.541Z" fill="white"/>
<path d="M75.2533 76.4002C74.9305 76.399 74.6182 76.2849 74.3705 76.0777C74.1229 75.8705 73.9555 75.5832 73.8974 75.2656C71.5361 62.5457 60.6794 53.1925 48.0701 53.0357H47.7288C41.8122 53.0786 36.0767 55.0819 31.42 58.7321C26.7634 62.3823 23.4483 67.4734 21.9938 73.2087C21.9471 73.3843 21.8664 73.549 21.7561 73.6935C21.6458 73.8379 21.5081 73.9592 21.3509 74.0504C21.1938 74.1416 21.0201 74.201 20.84 74.2251C20.6599 74.2493 20.4768 74.2377 20.3012 74.191C20.1255 74.1444 19.9608 74.0636 19.8164 73.9533C19.6719 73.843 19.5507 73.7054 19.4594 73.5482C19.3682 73.391 19.3088 73.2174 19.2847 73.0373C19.2606 72.8572 19.2722 72.6741 19.3188 72.4984C20.9271 66.1762 24.5845 60.5648 29.7195 56.5413C34.8545 52.5177 41.1778 50.3087 47.7012 50.2593H48.0793C61.9892 50.4345 73.9804 60.7378 76.5816 74.7491C76.615 74.9278 76.6128 75.1113 76.5752 75.2891C76.5377 75.4669 76.4654 75.6356 76.3626 75.7855C76.2598 75.9354 76.1285 76.0636 75.9762 76.1627C75.8238 76.2619 75.6534 76.33 75.4747 76.3633L75.2533 76.4002Z" fill="#001550"/>
<path d="M3.94214 20.4378C2.9636 20.5027 1.99938 20.1761 1.26161 19.53C0.52383 18.8839 0.0729236 17.9712 0.00809495 16.9926C-0.0567338 16.0141 0.269821 15.0499 0.915917 14.3121C1.56201 13.5743 2.47473 13.1234 3.45327 13.0586V13.0586C3.6562 13.0586 23.3034 10.2914 35.0825 1.39018C35.4689 1.09765 35.9091 0.884106 36.3781 0.761713C36.847 0.63932 37.3355 0.610489 37.8156 0.67687C38.2957 0.743251 38.758 0.903523 39.1761 1.14857C39.5943 1.39362 39.96 1.71865 40.2526 2.10506C40.5451 2.49147 40.7587 2.9317 40.8811 3.40065C41.0035 3.86959 41.0323 4.35804 40.9659 4.83813C40.8995 5.31821 40.7392 5.78054 40.4942 6.19868C40.2491 6.61682 39.9241 6.98258 39.5377 7.27512C26.1905 17.3754 5.31654 20.2533 4.43103 20.3733L3.94214 20.4378Z" fill="#001550"/>
<path d="M88.2219 24.9208C87.8624 24.9229 87.5046 24.87 87.1611 24.7639C69.5524 19.4786 52.6909 7.18293 51.9807 6.66638C51.1917 6.08659 50.6654 5.21714 50.5175 4.2493C50.3696 3.28145 50.6122 2.29449 51.192 1.50553C51.7718 0.716582 52.6412 0.190281 53.6091 0.0423792C54.5769 -0.105522 55.5639 0.137109 56.3528 0.716898C56.5097 0.83681 72.9561 12.7912 89.2827 17.6983C90.1301 17.9536 90.8575 18.505 91.3323 19.2519C91.8071 19.9989 91.9975 20.8916 91.8689 21.7673C91.7403 22.6429 91.3012 23.4432 90.6317 24.0221C89.9622 24.601 89.1069 24.9199 88.2219 24.9208V24.9208Z" fill="#001550"/>
</svg>

<svg width="92" height="77" fill="none" aria-hidden="true" xmlns="http://www.w3.org/2000/svg"><path d="M28.635 28.869c.073 5.534-3.118 10.146-7.13 10.146-4.013 0-7.324-4.427-7.38-9.999-.055-5.571 3.127-10.146 7.14-10.146 4.012 0 7.305 4.418 7.37 9.999Z" fill="#001550"/><path d="M25.683 24.229c.286 2.15-.526 4.04-1.845 4.215-1.319.176-2.573-1.43-2.868-3.588-.295-2.158.526-4.04 1.845-4.215 1.319-.175 2.61 1.43 2.868 3.588Z" fill="#fff"/><path d="M78.51 27.743c.073 5.58-3.119 10.147-7.131 10.193-4.013.046-7.324-4.428-7.38-9.999-.055-5.571 3.118-10.146 7.13-10.146 4.013 0 7.306 4.363 7.38 9.952Z" fill="#001550"/><path d="M75.309 22.541c.286 2.158-.526 4.04-1.845 4.215-1.32.176-2.574-1.43-2.869-3.579-.295-2.149.526-4.04 1.845-4.215 1.32-.175 2.573 1.43 2.869 3.579Z" fill="#fff"/><path d="M75.253 76.4a1.384 1.384 0 0 1-1.356-1.134c-2.36-12.72-13.218-22.074-25.827-22.23h-.341a26.75 26.75 0 0 0-25.735 20.173 1.386 1.386 0 0 1-1.693.982 1.382 1.382 0 0 1-.982-1.693A29.517 29.517 0 0 1 47.7 50.26h.378c13.91.175 25.901 10.479 28.503 24.49a1.382 1.382 0 0 1-1.107 1.614l-.222.037ZM3.942 20.438a3.697 3.697 0 1 1-.489-7.38c.203 0 19.85-2.767 31.63-11.668a3.69 3.69 0 1 1 4.455 5.885C26.19 17.375 5.317 20.253 4.43 20.373l-.489.065ZM88.222 24.92c-.36.003-.717-.05-1.06-.156C69.551 19.479 52.69 7.183 51.98 6.666a3.691 3.691 0 1 1 4.372-5.95c.157.12 16.603 12.075 32.93 16.982a3.69 3.69 0 0 1-1.061 7.223Z" fill="#001550"/></svg>
